X: 55
T:Southwind
C:Ireland
M:3/4
R:waltz
L:1/8
K:G
c2|"G"B3A G2|B2 c2 d2|"D7"A4 A2|A4 c2|
"G"B3A G2|"C"E2 D2 E2|"G"(G6|G4) c2|
"G"B3A G2|B2 c2 d2|"D7"A4 A2|A4 c2|
"G"B3A G2|"C"E2 D2 E2|"G"(G6|G4) d2||
"G"g4 g2|"C"g3f e2|"G"d4 d2|d4 c2|
"G"B3A G2|B2 c2 d2|"D7"(A6|A4) dd|
"C"g4 g2|g3f e2|"G"d4 d2|d4 cc|
"G"B3A G2|"D7"A3c A2|"G"(G6|G6)|]
